icons/thumb-up.svg

<svg width="24" height="24" viewBox="0 0 24 24" fill="none" xmlns="http://www.w3.org/2000/svg">
<path d="M2.71429 11H7V21H2.71429C2.52485 21 2.34316 20.919 2.20921 20.7747C2.07525 20.6304 2 20.4348 2 20.2308V11.7692C2 11.5652 2.07525 11.3696 2.20921 11.2253C2.34316 11.081 2.52485 11 2.71429 11V11Z" stroke="#1E293B" stroke-width="2" stroke-linecap="round" stroke-linejoin="round"/>
<path d="M7 10.8261L11.0033 3C11.4239 3 11.8404 3.08097 12.2289 3.23829C12.6175 3.39561 12.9706 3.6262 13.2679 3.91688C13.5653 4.20757 13.8012 4.55267 13.9622 4.93247C14.1231 5.31227 14.206 5.71934 14.206 6.13043V8.47826H20.3987C20.6257 8.47826 20.8502 8.52546 21.0572 8.61672C21.2641 8.70799 21.4489 8.84123 21.5992 9.00761C21.7494 9.174 21.8618 9.36971 21.9287 9.58177C21.9957 9.79384 22.0158 10.0174 21.9876 10.2376L20.7866 19.6289C20.7382 20.0075 20.55 20.3557 20.2574 20.6082C19.9648 20.8607 19.588 21 19.1977 21H7" stroke="#1E293B" stroke-width="2" stroke-linecap="round" stroke-linejoin="round"/>
</svg>

<svg
  width="24"
  height="24"
  viewBox="0 0 24 24"
  xmlns="http://www.w3.org/2000/svg"
  fill="none"
  stroke="currentColor"
  stroke-width="2"
  stroke-linecap="round"
  stroke-linejoin="round"
>
  <path d="M2.714 11H7v10H2.714a.69.69 0 0 1-.505-.225A.8.8 0 0 1 2 20.23v-8.462a.8.8 0 0 1 .21-.544.69.69 0 0 1 .504-.225z" />
  <path d="M7 10.826L11.003 3c.42 0 .837.081 1.226.238.389.158.742.388 1.039.679.297.29.533.636.694 1.015.161.38.244.787.244 1.198v2.348h6.193c.227 0 .451.047.658.139a1.6 1.6 0 0 1 .542.39 1.556 1.556 0 0 1 .389 1.23l-1.201 9.392a1.555 1.555 0 0 1-.53.98c-.292.252-.669.391-1.06.391H7" />
</svg>
